X: 1
T: Cullane, The
M: 2/4
L: 1/8
R: polka
K: Dmaj
F/|:Ad BA|DF FE/D/|CE GE|BA F>G|
Ad BA|DF FE/D/|CE GC|1ED D>F:|2ED D2||
|:F2 G2|BA FD|AB/A/ GE|BA FD|
F2 G2|BA FD|AB/A/ GC|1ED D=F:|2ED D>||
